images/home-icon.svg

<svg width="13" height="13" viewBox="0 0 13 13" fill="none" xmlns="http://www.w3.org/2000/svg">
<g clip-path="url(#clip0_4006_49372)">
<path d="M12.7817 5.81L6.949 0.495292C6.69298 0.261978 6.30692 0.262003 6.05101 0.495266L0.218309 5.81002C0.0132296 5.9969 -0.0545125 6.28483 0.0456788 6.54353C0.145895 6.80223 0.389899 6.96938 0.667342 6.96938H1.59892V12.2943C1.59892 12.5054 1.77011 12.6766 1.98123 12.6766H5.17826C5.38938 12.6766 5.56056 12.5055 5.56056 12.2943V9.06118H7.43952V12.2943C7.43952 12.5055 7.6107 12.6766 7.82182 12.6766H11.0187C11.2298 12.6766 11.401 12.5055 11.401 12.2943V6.96938H12.3328C12.6102 6.96938 12.8542 6.80221 12.9544 6.54353C13.0545 6.2848 12.9867 5.9969 12.7817 5.81Z" fill="#DCB62F"/>
<path d="M11.3014 1.08594H8.73389L11.6837 3.7681V1.46822C11.6837 1.2571 11.5125 1.08594 11.3014 1.08594Z" fill="#DCB62F"/>
</g>
<defs>
<clipPath id="clip0_4006_49372">
<rect width="13" height="13" fill="white"/>
</clipPath>
</defs>
</svg>

<svg width="13" height="13" fill="none" xmlns="http://www.w3.org/2000/svg"><g clip-path="url(#clip0_4006_49372)" fill="#DCB62F"><path d="M12.782 5.81L6.949.495a.664.664 0 00-.898 0L.218 5.81a.662.662 0 00-.172.734c.1.258.344.425.621.425H1.6v5.325c0 .211.171.383.382.383h3.197a.382.382 0 00.383-.383V9.061H7.44v3.233c0 .211.17.383.382.383h3.197a.382.382 0 00.382-.383V6.97h.932a.662.662 0 00.621-.425.663.663 0 00-.172-.734zm-1.481-4.724H8.734l2.95 2.682v-2.3a.382.382 0 00-.383-.382z"/></g><defs><clipPath id="clip0_4006_49372"><path fill="#fff" d="M0 0h13v13H0z"/></clipPath></defs></svg>
